X: 25725
T: Mary From Menlough
R: polka
M: 2/4
K: Amajor
A2 A B/c/|ec BA|F2 F E/F/|AF FE|A2 A B/c/|ec BA|a>f ec|B2 Bc|
A2 A B/c/|ec BA|F2 F E/F/|Ad dc|A2 A B/c/|ec BA|a>f ec|B2 BA||
ce ec|e/f/e/c/ BA|f2 fe|fecB|ce ec|e/f/e/c/ BA|a>f ec|B2 BA|
ce ec|e/f/e/c/ BA|f2 fe|e/f/ a a2|ce ec|e/f/e/c/ BA|a>f ec|BA FE||

